**kern	**dynam
*clefG2	*
*k[b-e-]	*
*B-:	*
*M6/8	*
8B-	.
=1	=1
4B-	.
8d	.
4d	.
8f	.
=2	=2
4f	.
8b-	.
4b-	p
8dd	.
=3	=3
4dd	.
8ee-	.
4dd	.
8dd	.
=4	=4
(>8ccL	.
8dd	.
8ee-J)	.
4dd	.
8B-	.
=5	=5
4B-	.
8d	.
4d	.
8f	.
=6	=6
4f	.
8b-	.
4b-	.
8b-	p
=7	=7
4a	.
8b-	.
4a	.
8cc	.
=8	=8
(>8ccL	.
8dd	.
8ee-J)	.
4dd	f
8r	.
=9	=9
!!linebreak:original
8ddL	f
8b-	.
8g'J	.
(<8fL	.
8aJ)	.
8r	.
=10	=10
(<8b-L	.
8g)	.
8en'J	.
4f	.
8r	.
=11	=11
(<8dL	.
8g)	.
8b-'J	.
(<8B-L	.
8en)	.
8e'J	.
=12	=12
!	!LO:DY:a
4f	f
8r	.
4r	.
8r	.
=13	=13
4r	.
8r	.
(<8cL	.
8en)	.
8f'J	.
=14	=14
(<8cL	.
8g)	.
8g'J	.
(<8fL	.
8a)	.
8a'J	.
=15	=15
8b-'L	.
(>8b-	.
8ccJ)	.
8dd'L	.
(>8dd	.
8eenJ)	.
=16	=16
8ff'L	.
(>8ff	.
8ggJ)	.
4aa	.
8r	.
=17	=17
!!linebreak:original
8en'L	.
8e'	.
8e'J	.
8f'L	.
(<16ccL	.
16a)	.
(<16g	.
16fJJ)	.
=18	=18
8en'L	.
8e'	.
8e'J	.
8f'L	.
(<16ccL	.
16a)	.
(<16g	.
16fJJ)	.
=19	=19
8enL	.
8e	.
8eJ	.
8fL	.
8f	.
8fJ	.
=20	=20
8enL	.
8e	.
8eJ	.
4f	.
8A	.
=21	=21
8B-'L	.
(<8B-	.
8cJ)	.
(<8dL	.
8f)	.
8A'J	.
=22	=22
(<8B-L	.
8g)	.
8en'J	.
8f	.
8r	.
8e	.
=23	=23
!!linebreak:original
8f	.
8r	.
8en	.
8f'L	.
8f'	.
8eJ	p
=24	=24
4f	.
8r	.
4r	.
=:|!	=:|!
8r	.
=25	=25
4r	.
8r	.
4r	.
8d	f
=26	=26
(<8dL	.
8e-	.
8fJ)	.
4e-	.
8r	.
=27	=27
4r	.
8r	.
4r	.
8c	.
=28	=28
(<8cL	.
8d	.
8e-J)	.
4d	.
8r	.
=29	=29
4r	.
8cc'	.
8aL	.
8fJ	.
8r	.
=30	=30
4r	.
8ee-'	.
(>8ccL	.
8aJ)	.
8r	.
=31	=31
4.r	.
4r	.
8dd	.
=32	=32
(>8ccL	p
8dd	.
8ee-J)	.
8qqee-/	.
4dd	.
8r	.
=33	=33
!!linebreak:original
8dd	.
8r	.
8r	.
4r	.
8ff	.
=34	=34
(>8ffL	.
8ee-	.
8ddJ)	.
4cc	.
8r	.
=35	=35
4r	.
8cc'	pp
(>8dd-XL	.
8ccJ)	.
8r	.
=36	=36
4r	.
8cc'	.
(<8dd-XL	.
8cc)	.
8f'J	.
=37	=37
4b-	ff
8f	.
4d	.
8B-	.
=38	=38
(<8g-XL	.
8f)	.
8en'J	.
4f	.
8en	p
=39	=39
4f	.
8en	.
4f	.
8en	.
=40	=40
4f	.
8r	.
4r	.
8B-	.
=41	=41
4B-	.
8d	.
4d	.
8f	.
=42	=42
4f	.
8b-	.
4b-	p
8dd	.
=43	=43
!!linebreak:original
4dd	.
8ee-	.
4dd	.
8dd	.
=44	=44
8ccL	.
8dd	.
8ee-J	.
4dd	.
8B-	f
=45	=45
4B-	.
8e-	.
4e-	.
8g	.
=46	=46
4g	.
8b-	.
4b-	.
8ee-	.
=47	=47
(>8ee-L	p
8gg)	.
8ee-'J	.
4dd	.
8dd	.
=48	=48
(>8ccL	.
8dd	.
8ee-J)	.
4dd	.
8r	.
=49	=49
4.b-	f
4.a	.
=50	=50
4.a-X	.
4.g	.
=51	=51
8gL	.
8cc	.
8ee-'J	.
(<8fL	.
8b-)	.
8dd'J	.
=52	=52
8e-L	.
8a	.
8aJ	.
4b-	.
8d	.
=53	=53
8e-'L	.
(<8e-	.
8fJ)	.
8g'L	.
!	!LO:DY:a
(<8g	f
8aJ)	.
=54	=54
!!linebreak:original
8b-'L	.
(>8b-	.
8ccJ)	.
4dd	.
8r	.
=55	=55
8A'L	.
8A'	.
8A'J	.
8B-L	.
(16fL	.
16d)	.
(16c	.
16B-JJ)	.
=56	=56
4.A	.
8B-L	.
(16fL	.
16d)	.
(16c	.
16B-JJ)	.
=57	=57
4.A	.
4.B-	.
=58	=58
4.A	.
4B-	.
8f	.
=59	=59
8g'L	.
(8g	.
8aJ)	.
(8b-L	.
8dd)	.
8f'J	.
=60	=60
(8gL	.
8cc)	.
8a'J	.
8b-	.
8r	.
8Am	.
=61	=61
8B-	.
8r	.
8Am	.
8B-'L	p
8B-'	.
8AmJ	.
=62	=62
4B-	.
4r	.
8r	.
=:|!	=:|!
*-	*-
!!!RDF**kern: > = above
!!!RDF**kern: < = below
